assets/logo2.svg

<?xml version="1.0" encoding="UTF-8"?>
<!DOCTYPE svg PUBLIC "-//W3C//DTD SVG 1.1//EN" "http://www.w3.org/Graphics/SVG/1.1/DTD/svg11.dtd">
<!-- Creator: CorelDRAW 2017 -->
<svg xmlns="http://www.w3.org/2000/svg" xml:space="preserve" width="100%" height="100%" version="1.1" style="shape-rendering:geometricPrecision; text-rendering:geometricPrecision; image-rendering:optimizeQuality; fill-rule:evenodd; clip-rule:evenodd"
viewBox="0 0 3.20892 0.82468"
 xmlns:xlink="http://www.w3.org/1999/xlink">
 <defs>
  <style type="text/css">
   <![CDATA[
    .fil1 {fill:black}
    .fil0 {fill:black;fill-rule:nonzero}
   ]]>
  </style>
 </defs>
 <g id="Camada_x0020_1">
  <metadata id="CorelCorpID_0Corel-Layer"/>
  <g id="_1949625950080">
   <polygon class="fil0" points="1.24088,0.30788 1.26939,0.17504 0.90522,0.17504 0.87671,0.30788 0.98687,0.30788 0.92466,0.60337 1.06787,0.60337 1.13007,0.30788 "/>
   <polygon id="1" class="fil0" points="1.23376,0.60337 1.57007,0.60337 1.5921,0.4971 1.399,0.4971 1.41131,0.44007 1.58238,0.44007 1.60376,0.33834 1.43269,0.33834 1.445,0.28196 1.63811,0.28196 1.66079,0.17439 1.32448,0.17439 "/>
   <path id="2" class="fil0" d="M1.68346 0.29881c-0.00129,0.00562 -0.00216,0.01091 -0.00259,0.01588 -0.00043,0.00496 -0.00065,0.00982 -0.00065,0.01458 0,0.0216 0.00519,0.03909 0.01556,0.05248 0.01036,0.0134 0.02343,0.02409 0.0392,0.03208 0.01577,0.00799 0.03283,0.01415 0.05119,0.01847 0.01836,0.00432 0.03543,0.0081 0.05119,0.01134 0.01577,0.00324 0.02884,0.0068 0.03921,0.01069 0.01037,0.00389 0.01555,0.0095 0.01555,0.01685 0,0.00086 -0.00011,0.0014 -0.00032,0.00162 -0.00022,0.00021 -0.00033,0.00075 -0.00033,0.00162 -0.00086,0.00302 -0.00216,0.00615 -0.00389,0.00939 -0.00172,0.00324 -0.00464,0.00627 -0.00874,0.00908 -0.00411,0.0028 -0.00951,0.00518 -0.0162,0.00712 -0.0067,0.00195 -0.01523,0.00292 -0.0256,0.00292 -0.03067,0 -0.05584,-0.00324 -0.07549,-0.00972 -0.01966,-0.00648 -0.03683,-0.01469 -0.05152,-0.02462 -0.01253,0.01512 -0.02495,0.0298 -0.03726,0.04406 -0.01231,0.01426 -0.02473,0.02894 -0.03726,0.04406 0.01123,0.00864 0.02419,0.0162 0.03888,0.02268 0.01469,0.00648 0.03013,0.01178 0.04633,0.01588 0.0162,0.0041 0.03273,0.00713 0.04958,0.00907 0.01684,0.00195 0.03283,0.00292 0.04795,0.00292 0.03499,0 0.06566,-0.00411 0.09201,-0.01231 0.02636,-0.00821 0.04871,-0.0189 0.06707,-0.03208 0.01836,-0.01318 0.03294,-0.02797 0.04374,-0.04439 0.0108,-0.01641 0.01793,-0.03305 0.02139,-0.04989 0.00216,-0.0108 0.00324,-0.02031 0.00324,-0.02852 0,-0.02764 -0.01005,-0.05076 -0.03014,-0.06933 -0.02008,-0.01858 -0.05151,-0.03154 -0.09428,-0.03888 -0.01166,-0.00173 -0.0229,-0.00346 -0.0337,-0.00519 -0.0108,-0.00172 -0.0203,-0.00378 -0.02851,-0.00615 -0.00821,-0.00238 -0.01469,-0.00508 -0.01944,-0.0081 -0.00475,-0.00303 -0.00713,-0.00713 -0.00713,-0.01231 0,-0.00087 0.00011,-0.00141 0.00033,-0.00162 0.00021,-0.00022 0.00032,-0.00076 0.00032,-0.00162 0.00389,-0.01772 0.02247,-0.02657 0.05573,-0.02657 0.01944,0 0.0391,0.00324 0.05897,0.00972 0.01987,0.00648 0.03845,0.01512 0.05573,0.02592l0.07192 -0.08943c-0.02592,-0.01771 -0.05335,-0.03034 -0.08229,-0.0379 -0.02895,-0.00756 -0.05962,-0.01134 -0.09202,-0.01134 -0.03456,0 -0.06458,0.00345 -0.09007,0.01036 -0.02549,0.00692 -0.04709,0.01642 -0.0648,0.02852 -0.01771,0.01209 -0.03164,0.02602 -0.0418,0.04179 -0.01015,0.01577 -0.01717,0.03273 -0.02106,0.05087z"/>
   <polygon id="3" class="fil0" points="2.47726,0.30788 2.50577,0.17504 2.1416,0.17504 2.11309,0.30788 2.22325,0.30788 2.16104,0.60337 2.30425,0.60337 2.36645,0.30788 "/>
   <path id="4" class="fil0" d="M2.94966 0.40897l0.00842 -0.03953c0.00216,-0.00864 0.00356,-0.01685 0.00421,-0.02462 0.00065,-0.00778 0.00097,-0.01534 0.00097,-0.02268 0,-0.02506 -0.00475,-0.0472 -0.01425,-0.06642 -0.00951,-0.01923 -0.02268,-0.03543 -0.03953,-0.0486 -0.01685,-0.01318 -0.03694,-0.02311 -0.06026,-0.02981 -0.02333,-0.0067 -0.04882,-0.01004 -0.07647,-0.01004 -0.03197,0 -0.06275,0.00432 -0.09234,0.01296 -0.02959,0.00864 -0.05648,0.02149 -0.08067,0.03855 -0.0242,0.01707 -0.04493,0.03823 -0.06221,0.06351 -0.01728,0.02527 -0.02938,0.05432 -0.03629,0.08715l-0.00842 0.03953c-0.00173,0.00864 -0.00303,0.01685 -0.00389,0.02462 -0.00087,0.00778 -0.0013,0.01534 -0.0013,0.02268 0,0.02549 0.00475,0.04785 0.01426,0.06707 0.0095,0.01923 0.02268,0.03532 0.03953,0.04828 0.01684,0.01296 0.03693,0.02279 0.06026,0.02948 0.02333,0.0067 0.04882,0.01005 0.07646,0.01005 0.03197,0 0.06275,-0.00443 0.09234,-0.01329 0.0296,-0.00885 0.0566,-0.02181 0.081,-0.03888 0.02441,-0.01706 0.04515,-0.03823 0.06221,-0.0635 0.01707,-0.02527 0.02905,-0.05411 0.03597,-0.08651zm-0.13608 -0.03758l-0.00778 0.03564c-0.00259,0.01166 -0.00724,0.02268 -0.01393,0.03304 -0.0067,0.01037 -0.01458,0.01944 -0.02365,0.02722 -0.00908,0.00778 -0.01923,0.01382 -0.03046,0.01814 -0.01123,0.00432 -0.02268,0.00648 -0.03434,0.00648 -0.02031,0 -0.03672,-0.00626 -0.04925,-0.01879 -0.01253,-0.01253 -0.01879,-0.02851 -0.01879,-0.04795 0,-0.00562 0.00064,-0.01166 0.00194,-0.01814l0.00778 -0.03564c0.00259,-0.01167 0.00712,-0.02268 0.0136,-0.03305 0.00648,-0.01037 0.01437,-0.01933 0.02366,-0.02689 0.00928,-0.00756 0.01944,-0.01361 0.03045,-0.01815 0.01102,-0.00453 0.02236,-0.0068 0.03402,-0.0068 0.02074,0 0.03737,0.00637 0.0499,0.01911 0.01253,0.01275 0.01879,0.02884 0.01879,0.04828 0,0.00605 -0.00065,0.01188 -0.00194,0.0175z"/>
   <polygon class="fil0" points="1.04363,0.67861 1.04929,0.65156 0.93723,0.65156 0.90116,0.82236 0.93362,0.82236 0.94856,0.751 1.0207,0.751 1.02662,0.72369 0.95449,0.72369 0.96402,0.67861 "/>
   <path id="1" class="fil0" d="M1.09051 0.75795l0.03529 -0.06543 0.00103 0 0.00773 0.06543 -0.04405 0zm0.04689 0.0268l0.00515 0.03761 0.03349 0 -0.02396 -0.1708 -0.03426 0 -0.09635 0.1708 0.03375 0 0.02086 -0.03761 0.06132 0z"/>
   <path id="2" class="fil0" d="M1.34736 0.78604l-0.02653 -0.0152c-0.0055,0.00721 -0.0122,0.01296 -0.0201,0.01726 -0.0079,0.00429 -0.01606,0.00644 -0.02447,0.00644 -0.0055,0 -0.01048,-0.0009 -0.01494,-0.00271 -0.00447,-0.0018 -0.00833,-0.00429 -0.0116,-0.00747 -0.00326,-0.00318 -0.00575,-0.00695 -0.00747,-0.01133 -0.00172,-0.00438 -0.00258,-0.00915 -0.00258,-0.0143 0,-0.00361 0.00035,-0.00704 0.00104,-0.01031l0.00463 -0.02293c0.00138,-0.00635 0.00382,-0.01232 0.00734,-0.0179 0.00353,-0.00558 0.00778,-0.01043 0.01276,-0.01456 0.00498,-0.00412 0.01052,-0.00738 0.01661,-0.00978 0.0061,-0.00241 0.01233,-0.00361 0.01868,-0.00361 0.00842,0 0.01567,0.0021 0.02177,0.00631 0.0061,0.00421 0.01035,0.00983 0.01275,0.01687l0.03298 -0.01468c-0.00412,-0.01202 -0.01155,-0.02147 -0.02229,-0.02834 -0.01073,-0.00687 -0.02365,-0.0103 -0.03877,-0.0103 -0.01099,0 -0.02168,0.00184 -0.03207,0.00554 -0.01039,0.00369 -0.01984,0.00888 -0.02834,0.01558 -0.0085,0.0067 -0.0158,0.01469 -0.0219,0.02396 -0.0061,0.00927 -0.01026,0.01941 -0.01249,0.0304l-0.00516 0.02396c-0.0012,0.00549 -0.0018,0.01108 -0.0018,0.01674 0,0.00893 0.00159,0.01701 0.00477,0.02422 0.00317,0.00721 0.0076,0.0134 0.01326,0.01855 0.00567,0.00515 0.01246,0.00914 0.02036,0.01198 0.0079,0.00283 0.01666,0.00425 0.02627,0.00425 0.01512,0 0.02946,-0.00348 0.04303,-0.01044 0.01356,-0.00695 0.02499,-0.01635 0.03426,-0.0282z"/>
   <polygon id="3" class="fil0" points="1.51275,0.65156 1.38832,0.65156 1.38188,0.68196 1.42748,0.68196 1.39785,0.82236 1.43057,0.82236 1.46019,0.68196 1.50631,0.68196 "/>
   <path id="4" class="fil0" d="M1.66655 0.74894l0.00515 -0.02396c0.00121,-0.00532 0.00181,-0.01073 0.00181,-0.01623 0,-0.00893 -0.00159,-0.01705 -0.00477,-0.02435 -0.00318,-0.00729 -0.0076,-0.01352 -0.01327,-0.01867 -0.00566,-0.00516 -0.01245,-0.00915 -0.02035,-0.01198 -0.0079,-0.00284 -0.01657,-0.00425 -0.02602,-0.00425 -0.01099,0 -0.02168,0.00184 -0.03207,0.00554 -0.01039,0.00369 -0.01984,0.00888 -0.02834,0.01558 -0.0085,0.0067 -0.0158,0.01469 -0.0219,0.02396 -0.0061,0.00927 -0.01026,0.01941 -0.01249,0.0304l-0.00516 0.02396c-0.0012,0.00549 -0.0018,0.01108 -0.0018,0.01674 0,0.00893 0.00159,0.01701 0.00477,0.02422 0.00317,0.00721 0.0076,0.0134 0.01326,0.01855 0.00567,0.00515 0.01246,0.00914 0.02036,0.01198 0.0079,0.00283 0.01666,0.00425 0.02627,0.00425 0.01082,0 0.02143,-0.00185 0.03182,-0.00554 0.01039,-0.00369 0.01984,-0.00889 0.02834,-0.01559 0.0085,-0.00669 0.01576,-0.01468 0.02177,-0.02395 0.00601,-0.00928 0.01022,-0.0195 0.01262,-0.03066zm-0.02834 -0.02345l-0.00463 0.02293c-0.00138,0.00636 -0.00387,0.01233 -0.00748,0.01791 -0.0036,0.00558 -0.00785,0.01043 -0.01275,0.01455 -0.00489,0.00413 -0.01035,0.00739 -0.01636,0.00979 -0.00601,0.00241 -0.01219,0.00361 -0.01855,0.00361 -0.00549,0 -0.01051,-0.0009 -0.01507,-0.00271 -0.00455,-0.0018 -0.00845,-0.00429 -0.01172,-0.00747 -0.00326,-0.00317 -0.00575,-0.00695 -0.00747,-0.01133 -0.00172,-0.00438 -0.00258,-0.00915 -0.00258,-0.0143 0,-0.00378 0.00035,-0.00713 0.00104,-0.01005l0.00463 -0.02293c0.00138,-0.00635 0.00382,-0.01232 0.00734,-0.0179 0.00353,-0.00558 0.00778,-0.01043 0.01276,-0.01456 0.00498,-0.00412 0.01052,-0.00738 0.01661,-0.00978 0.0061,-0.00241 0.01233,-0.00361 0.01868,-0.00361 0.0055,0 0.01048,0.0009 0.01494,0.0027 0.00447,0.00181 0.00833,0.00434 0.0116,0.0076 0.00326,0.00327 0.00575,0.00709 0.00747,0.01147 0.00171,0.00438 0.00257,0.00914 0.00257,0.0143 0,0.00154 -0.00008,0.00313 -0.00025,0.00476 -0.00018,0.00163 -0.00043,0.00331 -0.00078,0.00502z"/>
   <path id="5" class="fil0" d="M1.83452 0.71081l0.00258 -0.01237c0.00069,-0.00291 0.00103,-0.00626 0.00103,-0.01004 0,-0.01065 -0.00348,-0.01945 -0.01043,-0.02641 -0.00696,-0.00695 -0.01662,-0.01043 -0.02899,-0.01043l-0.08398 0 -0.03607 0.1708 0.03272 0 0.0134 -0.06312 0.02679 0c0.00395,0.01065 0.00794,0.02121 0.01198,0.03169 0.00403,0.01048 0.00811,0.02095 0.01224,0.03143l0.03503 0 -0.02447 -0.06389c0,-0.00017 0.00008,-0.0003 0.00026,-0.00039 0.00017,-0.00008 0.00025,-0.00021 0.00025,-0.00038 0.00498,-0.00035 0.01001,-0.00181 0.01507,-0.00438 0.00507,-0.00258 0.00979,-0.00597 0.01417,-0.01018 0.00438,-0.00421 0.0082,-0.0091 0.01147,-0.01468 0.00326,-0.00558 0.00558,-0.01147 0.00695,-0.01765zm-0.10433 0.0219l0.01159 -0.05359 0.04405 0c0.00567,0 0.01018,0.00163 0.01353,0.0049 0.00335,0.00326 0.00502,0.00738 0.00502,0.01236 0,0.00086 -0.00004,0.00164 -0.00013,0.00232 -0.00008,0.00069 -0.00021,0.00146 -0.00038,0.00232l-0.00206 0.00979c-0.00052,0.00258 -0.00168,0.0052 -0.00348,0.00786 -0.00181,0.00266 -0.00395,0.00502 -0.00644,0.00708 -0.00249,0.00206 -0.00528,0.00374 -0.00838,0.00503 -0.00309,0.00128 -0.00618,0.00193 -0.00927,0.00193l-0.04405 0z"/>
   <path class="fil1" d="M0.37288 0.24691l-0.12597 0.02015 0.35777 -0.26706 0.21163 0.0655 -0.02267 0.33762 -0.36281 0.22171 0.02267 -0.09322 -0.4535 0.26203 0.22675 -0.29982 -0.10078 0.01008 0.24691 -0.25699zm0.15157 0.10993l0.03328 0.01456 0.03327 0.01456 -0.00356 0.03615 -0.00358 0.03615 -0.03547 0.00778 -0.03548 0.00777 -0.01837 -0.03135 -0.01835 -0.03133 0.02413 -0.02715 0.02413 -0.02714zm0.07076 -0.26837l0.06646 0.02419 0.06646 0.02418 -0.00246 0.07068 -0.00248 0.07068 -0.06797 0.01949 -0.06797 0.01949 -0.03956 -0.05862 -0.03955 -0.05863 0.04354 -0.05573 0.04353 -0.05573zm-0.25414 0.29112l0.02608 -0.00598 0.02609 -0.00599 0.01375 0.02295 0.01376 0.02296 -0.01758 0.02018 -0.01758 0.02017 -0.02464 -0.01048 -0.02461 -0.01049 0.00236 -0.02666 0.00237 -0.02666z"/>
   <path class="fil0" d="M2.14312 0.69484l-0.02602 0 0.0067 -0.0322 -0.04586 0 -0.0067 0.0322 -0.01803 0 -0.00644 0.03014 0.01803 0 -0.00979 0.04637c-0.00137,0.00636 -0.00206,0.01194 -0.00206,0.01675 0,0.01116 0.00327,0.01966 0.00979,0.0255 0.00653,0.00584 0.01675,0.00876 0.03066,0.00876l0.02267 0 0.00799 -0.03787 -0.00954 0c-0.00498,0 -0.0085,-0.00077 -0.01056,-0.00232 -0.00206,-0.00154 -0.00309,-0.00421 -0.00309,-0.00798 0,-0.00207 0.00026,-0.00438 0.00077,-0.00696l0.00902 -0.04225 0.02602 0 0.00644 -0.03014z"/>
   <path id="1" class="fil0" d="M2.23947 0.69303c-0.00584,0 -0.01172,0.00155 -0.01764,0.00464 -0.00593,0.00309 -0.01113,0.00722 -0.01559,0.01237l-0.00129 0 0.00335 -0.0152 -0.04611 0 -0.02705 0.12752 0.04585 0 0.01469 -0.0693c0.00051,-0.00275 0.00167,-0.00537 0.00347,-0.00786 0.00181,-0.00249 0.00395,-0.00468 0.00645,-0.00657 0.00249,-0.00189 0.00519,-0.00339 0.00811,-0.0045 0.00292,-0.00112 0.00593,-0.00168 0.00902,-0.00168 0.00858,0 0.01477,0.00137 0.01855,0.00412l0.01777 -0.04044c-0.0024,-0.00121 -0.00515,-0.00202 -0.00824,-0.00245 -0.00309,-0.00043 -0.00687,-0.00065 -0.01134,-0.00065z"/>
   <path id="2" class="fil0" d="M2.2709 0.69484l-0.01674 0.07883c-0.00155,0.00721 -0.00232,0.01374 -0.00232,0.01958 0,0.0103 0.00271,0.01803 0.00812,0.02318 0.00541,0.00516 0.01412,0.00773 0.02614,0.00773 0.00378,0 0.0076,-0.00043 0.01147,-0.00128 0.00386,-0.00086 0.00755,-0.00207 0.01108,-0.00361 0.00352,-0.00155 0.00669,-0.00335 0.00953,-0.00541 0.00283,-0.00206 0.00519,-0.00421 0.00708,-0.00644l0.00155 0 -0.00309 0.01494 0.04585 0 0.02705 -0.12752 -0.04585 0 -0.01546 0.07213c-0.00103,0.00481 -0.00348,0.00906 -0.00734,0.01275 -0.00387,0.0037 -0.00838,0.00554 -0.01353,0.00554 -0.00498,0 -0.0085,-0.00137 -0.01056,-0.00412 -0.00206,-0.00275 -0.00309,-0.00592 -0.00309,-0.00953 0,-0.00086 0.00004,-0.00163 0.00013,-0.00232 0.00008,-0.00069 0.00021,-0.00146 0.00038,-0.00232l0.01546 -0.07213 -0.04586 0z"/>
   <polygon id="3" class="fil0" points="2.47107,0.77908 2.5651,0.69381 2.57386,0.65156 2.43165,0.65156 2.42289,0.69381 2.49864,0.69381 2.49838,0.6951 2.40435,0.78011 2.39559,0.82236 2.53805,0.82236 2.54681,0.78011 2.47081,0.78011 "/>
   <polygon id="4" class="fil0" points="2.70757,0.82236 2.75652,0.82236 2.78099,0.65156 2.73076,0.65156 2.67846,0.73168 2.67717,0.73168 2.65939,0.65156 2.60813,0.65156 2.5597,0.82236 2.60864,0.82236 2.63415,0.73606 2.63518,0.73606 2.65295,0.80536 2.67202,0.80536 2.71865,0.73606 2.71994,0.73606 "/>
   <path id="5" class="fil0" d="M2.8557 0.75615l0.02551 -0.05023 0.00154 0 0.00387 0.05023 -0.03092 0zm0.03504 0.03736l0.0036 0.02885 0.04972 0 -0.02498 -0.1708 -0.05153 0 -0.09738 0.1708 0.04998 0 0.01571 -0.02885 0.05488 0z"/>
   <polygon class="fil0" points="3.09543,0.18114 3.02065,0.18114 3.01678,0.19941 3.04419,0.19941 3.02638,0.28379 3.04604,0.28379 3.06385,0.19941 3.09156,0.19941 "/>
   <polygon id="1" class="fil0" points="3.17486,0.28379 3.19452,0.28379 3.20892,0.18114 3.18972,0.18114 3.14823,0.24323 3.14761,0.24323 3.13243,0.18114 3.11308,0.18114 3.08398,0.28379 3.10348,0.28379 3.12222,0.21954 3.12284,0.21954 3.13692,0.27404 3.14606,0.27404 3.18306,0.21954 3.18368,0.21954 "/>
  </g>
 </g>
</svg>

<svg xmlns="http://www.w3.org/2000/svg" width="100%" height="100%" fill-rule="evenodd" clip-rule="evenodd" image-rendering="optimizeQuality" shape-rendering="geometricPrecision" text-rendering="geometricPrecision" version="1.1" viewBox="0 0 3.209 .825" xml:space="preserve">
  <defs>
    <style type="text/css">
      .fil0{fill:#000;fill-rule:nonzero}
    </style>
  </defs>
  <g id="Camada_x0020_1">
    <g id="_1949625950080">
      <path d="M1.241.308l.028-.133H.905L.877.308h.11L.925.603h.143L1.13.308z" class="fil0"/>
      <path id="1" d="M1.234.603h.336l.022-.106h-.193L1.411.44h.171l.022-.102h-.171l.012-.056h.193l.023-.108h-.337z" class="fil0"/>
      <path id="2" d="M1.683.299a.116.116 0 0 0-.003.03c0 .022.005.04.016.053.01.013.023.024.039.032a.229.229 0 0 0 .051.018l.051.012a.267.267 0 0 1 .04.01c.01.004.015.01.015.017v.003a.048.048 0 0 1-.004.01.027.027 0 0 1-.01.009.057.057 0 0 1-.015.007.246.246 0 0 1-.101-.007A.207.207 0 0 1 1.71.47a2.865 2.865 0 0 1-.074.088.188.188 0 0 0 .038.022.292.292 0 0 0 .096.025.418.418 0 0 0 .048.003.31.31 0 0 0 .092-.012.233.233 0 0 0 .067-.032.17.17 0 0 0 .044-.045.143.143 0 0 0 .025-.078.09.09 0 0 0-.03-.07.183.183 0 0 0-.095-.038A2.96 2.96 0 0 1 1.86.32a.076.076 0 0 1-.02-.009A.014.014 0 0 1 1.833.3V.298l.001-.001C1.837.279 1.856.27 1.89.27c.02 0 .039.004.059.01.02.007.038.015.056.026l.071-.09A.263.263 0 0 0 1.993.18a.363.363 0 0 0-.182-.001.213.213 0 0 0-.065.028.148.148 0 0 0-.063.093z" class="fil0"/>
      <path id="3" d="M2.477.308l.029-.133h-.364l-.029.133h.11l-.062.295h.143l.062-.295z" class="fil0"/>
      <path id="4" d="M2.95.409l.008-.04a.155.155 0 0 0 .005-.047.14.14 0 0 0-.054-.115.175.175 0 0 0-.06-.03.328.328 0 0 0-.169.003.248.248 0 0 0-.18.19l-.007.039a.286.286 0 0 0-.005.047.136.136 0 0 0 .054.115.178.178 0 0 0 .06.03.32.32 0 0 0 .25-.042.242.242 0 0 0 .098-.15zM2.814.371l-.008.036a.1.1 0 0 1-.014.033.125.125 0 0 1-.024.027.104.104 0 0 1-.065.025.067.067 0 0 1-.049-.019.065.065 0 0 1-.019-.048l.002-.018.008-.036a.105.105 0 0 1 .037-.06.121.121 0 0 1 .03-.018.089.089 0 0 1 .035-.007.066.066 0 0 1 .069.067l-.002.018z" class="fil0"/>
      <path d="M1.044.679l.005-.027H.937l-.036.17h.033L.949.751h.072l.006-.027H.954l.01-.045z" class="fil0"/>
      <path id="1" d="M1.09.758l.036-.065.009.065H1.09zm.047.027l.006.037h.033l-.024-.17h-.034l-.097.17h.034l.021-.037h.061z" class="fil0"/>
      <path id="2" d="M1.347.786L1.321.771a.063.063 0 0 1-.02.017.05.05 0 0 1-.025.007.04.04 0 0 1-.015-.003.035.035 0 0 1-.011-.008.032.032 0 0 1-.008-.011.039.039 0 0 1-.002-.014v-.01l.005-.024a.061.061 0 0 1 .037-.042.05.05 0 0 1 .019-.003c.008 0 .015.002.021.006.007.004.01.01.013.017l.033-.015A.053.053 0 0 0 1.346.66a.07.07 0 0 0-.039-.01.095.095 0 0 0-.06.02.1.1 0 0 0-.022.025.086.086 0 0 0-.013.03l-.005.024a.078.078 0 0 0-.002.017.06.06 0 0 0 .005.024.054.054 0 0 0 .013.018.06.06 0 0 0 .02.012.093.093 0 0 0 .07-.006.102.102 0 0 0 .034-.028z" class="fil0"/>
      <path id="3" d="M1.513.652h-.125l-.006.03h.045l-.029.14h.033l.029-.14h.046z" class="fil0"/>
      <path id="4" d="M1.667.749l.005-.024a.073.073 0 0 0 .002-.016.06.06 0 0 0-.005-.025.054.054 0 0 0-.014-.018.06.06 0 0 0-.02-.012A.076.076 0 0 0 1.61.65a.095.095 0 0 0-.06.02.1.1 0 0 0-.022.025.086.086 0 0 0-.013.03L1.51.749a.078.078 0 0 0-.002.017.06.06 0 0 0 .005.024.054.054 0 0 0 .013.018.06.06 0 0 0 .02.012.077.077 0 0 0 .027.005.094.094 0 0 0 .06-.021.098.098 0 0 0 .035-.055zM1.638.725l-.004.023a.054.054 0 0 1-.008.018.065.065 0 0 1-.029.025.05.05 0 0 1-.019.003.04.04 0 0 1-.015-.002.035.035 0 0 1-.011-.008.032.032 0 0 1-.008-.011.044.044 0 0 1-.002-.024l.005-.024a.061.061 0 0 1 .037-.042.05.05 0 0 1 .019-.003c.005 0 .01 0 .015.002a.035.035 0 0 1 .019.02.039.039 0 0 1 .002.018v.005z" class="fil0"/>
      <path id="5" d="M1.835.71l.002-.012.001-.01c0-.01-.003-.019-.01-.026a.04.04 0 0 0-.03-.01h-.083l-.036.17h.032L1.725.76h.027a2.651 2.651 0 0 0 .024.063h.035L1.786.758a.04.04 0 0 0 .016-.005.068.068 0 0 0 .033-.043zM1.73.734l.012-.054h.044c.005 0 .01.002.013.005a.017.017 0 0 1 .005.012.018.018 0 0 1 0 .005l-.002.01a.022.022 0 0 1-.004.008.034.034 0 0 1-.014.012.024.024 0 0 1-.01.002H1.73z" class="fil0"/>
      <path fill="#000" d="M.373.247l-.126.02L.605 0l.211.065-.022.338L.43.625.453.532 0 .794l.227-.3-.101.01.247-.257zm.151.11L.558.37.59.386.587.422.584.458.548.466.513.474.495.442.476.412.5.383.524.357zM.595.088l.067.025.066.024-.002.07-.003.071-.068.02-.068.02-.04-.06L.509.2.552.144.595.088zM.341.38L.367.374.393.368.407.39l.014.023-.018.02-.017.02L.36.444.336.432.34.406.34.38z"/>
      <path d="M2.143.695h-.026l.007-.032h-.046L2.07.695h-.018l-.006.03h.018l-.01.046a.08.08 0 0 0-.002.017c0 .011.003.02.01.026.006.005.016.008.03.008h.023l.008-.038h-.01c-.004 0-.008 0-.01-.002-.002-.001-.003-.004-.003-.008V.767l.01-.042h.026l.006-.03z" class="fil0"/>
      <path id="1" d="M2.24.693a.038.038 0 0 0-.018.005.053.053 0 0 0-.016.012h-.001l.003-.015h-.046l-.027.127h.046l.015-.069a.02.02 0 0 1 .003-.008.031.031 0 0 1 .024-.013c.008 0 .015.002.018.005l.018-.04a.026.026 0 0 0-.008-.003L2.239.693z" class="fil0"/>
      <path id="2" d="M2.27.695l-.016.079a.094.094 0 0 0-.002.02c0 .01.003.017.008.022.005.006.014.008.026.008A.053.053 0 0 0 2.31.82a.051.051 0 0 0 .016-.012h.002l-.003.015h.046l.027-.127H2.35l-.016.072a.025.025 0 0 1-.007.013.019.019 0 0 1-.014.005c-.005 0-.008-.001-.01-.004A.015.015 0 0 1 2.3.771a.018.018 0 0 1 0-.004l.016-.072H2.27z" class="fil0"/>
      <path id="3" d="M2.471.779l.094-.085.009-.042h-.142l-.009.042h.076l-.001.001-.094.085-.008.042h.142L2.547.78h-.076z" class="fil0"/>
      <path id="4" d="M2.708.822h.049l.024-.17h-.05l-.053.08h-.001l-.018-.08h-.051l-.048.17h.049l.025-.086h.001l.018.069h.019l.047-.069h.001z" class="fil0"/>
      <path id="5" d="M2.856.756l.025-.05h.002l.004.05h-.031zm.035.038l.003.028h.05L2.92.652h-.051l-.098.17h.05l.016-.028h.055z" class="fil0"/>
      <path d="M3.095.181h-.074l-.004.018h.027l-.018.085h.02l.018-.085h.028z" class="fil0"/>
      <path id="1" d="M3.175.284h.02l.014-.103H3.19l-.042.062-.016-.062h-.019l-.029.103h.019L3.122.22h.001l.014.054h.009L3.183.22h.001z" class="fil0"/>
    </g>
  </g>
</svg>
